dist/svg/static/NFC-large.svg

<svg xmlns="http://www.w3.org/2000/svg" width="48" height="48" viewBox="0 0 48 48"><g fill="none" stroke="currentColor" stroke-miterlimit="10"><path d="M30.07 24.86a18 18 0 0 0-.15-18.47M36.09 29.42a28.43 28.43 0 0 0-.21-27.7M23.2 8.68a18 18 0 0 1 .05 13.76L10.5 12a20.73 20.73 0 0 0 1 10.5"/><g><path d="M22.5 46v-9.5H29M28 41.5h-5M10.5 46v-9l8 8v-9M38.45 44.36a4.16 4.16 0 0 1-2.72 1 4.3 4.3 0 0 1 0-8.6 4.14 4.14 0 0 1 2 .5"/></g></g></svg>

<?xml version="1.0" encoding="UTF-8" standalone="no"?>
<svg width="48px" height="48px" viewBox="0 0 48 48" version="1.1" xmlns="http://www.w3.org/2000/svg" xmlns:xlink="http://www.w3.org/1999/xlink">
    <!-- Generator: sketchtool 46.2 (44496) - http://www.bohemiancoding.com/sketch -->
    <title>nfc-large</title>
    <desc>Created with sketchtool.</desc>
    <defs></defs>
    <g id="icons-published" stroke="none" stroke-width="1" fill="none" fill-rule="evenodd">
        <g id="briefing" transform="translate(-2592.000000, -1050.000000)"></g>
        <g id="nfc-large" stroke="#000000">
            <path d="M30.1,24.9 C33.5,19.2 33.4,12.1 30,6.4 M36.1,29.4 C40.8,20.8 40.8,10.3 35.9,1.7 M23.2,8.7 C25,13.1 25.1,18 23.2,22.5 L10.5,12 C9.9,15.5 10.3,19.1 11.5,22.5" id="Shape"></path>
            <path d="M22.5,46 L22.5,36.5 L29,36.5 M28,41.5 L23,41.5 M10.5,46 L10.5,37 L18.5,45 L18.5,36 M38.5,44.4 C37.7,45 36.8,45.4 35.8,45.4 C33.4,45.4 31.5,43.5 31.5,41.1 C31.5,38.7 33.4,36.8 35.8,36.8 C36.5,36.8 37.2,37 37.8,37.3" id="Shape"></path>
        </g>
    </g>
</svg>
